X:514
T: Sanba shanzi
N: C1932
O: China, Henan Shangcheng
S: IV, 108]
R: Xiaodiao]
M: 2/4
L: 1/16
K: D
F2FABdBA | FEFAE2E2
F2FABdBA | FEFAE2E2
FEFAD2D2 | FEFAD2D2
FEFAD2D2 | DEFAEFED | B,A,B,DA,2A,2
F2FABdBA | FEFAE2E2
F2FABdBA | FEFAE2E2
FEFAD2D2 | FEFAD2D2
D2B,2D2B,2 | D2B,2D2B,2
DEFAEFED | B,A,B,DA,2A,2

